X: 1
T: Durham Market
S: http://thesession.org/members/27102 2014-7-1
L: 1/8
R: 2/4
K: D Major
|: FA BA | D>E FF | E F/E/ DE | FD DE | FA BA | D>E FF | EF GA | | BA A2 :|
|: Bd AF | Bd d2 | F A/F/ E D/E/ | FE F/G/ A | Bd AF | Bd d>A | B/A/G/F/ E/F/G/A/ |1 Bc BA :|2 Bc d2 |]

